X:117
T:Paddy O'Brian
Z: id:dc-jig-170
M:6/8
L:1/8
K:G Major
zD|DEF G2A|Bgf efg|dBG FGA|BdB cAF|!
DEF G2A|Bgf efg|dBG FGA|BGF G:|!
Bd|gfe agf|gfe dBG|gfe dBG|AFA BGE|!
DEF G2A|Bgf efg|dBG FGA|BGF G:|!
Bc|dgg gfg|eag fed|bgb afa|gfe d3|!
ece gfe|ded GBd|cAF DFA|BGF G:|!

